X: 28249
T: Mrs. Hogan's Goose
R: jig
M: 6/8
K: Bminor
(d/c/)|BAF BAF|BAF ~B2c|dc(B {d}B)AB|{d}cAF F2 (d/c/)|
BAF BAF|BAF B2c|dcB ce(c|{d}c)BB B2:|
c|d2(e f)dB|{d}c2(d e)cA|d2(e f)dB|cd(c {d}c)BB|
d2e fdB|c2d ecA|faf edc|dBB ~B2:|

